static/images/hp-location.svg

<svg width="342" height="399" viewBox="0 0 342 399" fill="none" xmlns="http://www.w3.org/2000/svg">
<path d="M4.35229 397.144C58.0449 402.303 113.545 387.858 158.461 357.679C171.367 349.167 183.242 339.366 194.084 328.532C197.697 324.921 192.018 319.504 188.663 323.115C151.491 360.259 101.412 383.989 49.0101 389.148C34.2963 390.695 19.3243 390.695 4.35229 389.406C-0.552327 388.89 -0.552327 396.628 4.35229 397.144Z" fill="#FFDFAF"/>
<path d="M173.175 329.822C180.145 329.306 187.114 328.79 194.342 328.274C193.051 326.985 191.761 325.695 190.47 324.405C190.986 331.112 190.986 337.818 190.212 344.525C189.954 346.588 192.019 348.394 194.084 348.394C196.407 348.394 197.698 346.588 197.956 344.525C198.73 337.818 198.73 331.112 198.214 324.405C197.956 322.342 196.665 320.278 194.342 320.536C187.372 321.052 180.403 321.568 173.175 322.084C171.11 322.342 169.303 323.632 169.303 325.953C169.561 327.759 171.11 329.822 173.175 329.822Z" fill="#FFDFAF"/>
<path d="M341.996 177.896L92.1191 177.896L92.1191 302.48L341.996 302.48L341.996 177.896Z" fill="#FEF0A5"/>
<path d="M217.574 198.531L176.014 198.531L176.014 302.48L217.574 302.48L217.574 198.531Z" fill="#FFDFAF"/>
<path d="M211.122 264.821L182.469 264.821L182.469 298.095L211.122 298.095L211.122 264.821Z" fill="#FFBFA8"/>
<path d="M211.122 227.162L182.469 227.162L182.469 260.436L211.122 260.436L211.122 227.162Z" fill="#FFBFA8"/>
<path d="M211.122 205.495L182.469 205.495L182.469 222.261L211.122 222.261L211.122 205.495Z" fill="#FFBFA8"/>
<path d="M332.444 197.499L243.902 197.499L243.902 302.48L332.444 302.48L332.444 197.499Z" fill="#FFBFA8"/>
<path d="M170.85 197.499L111.994 197.499L111.994 302.48L170.85 302.48L170.85 197.499Z" fill="#FFBFA8"/>
<path d="M341.996 154.165L92.1191 154.165L92.1191 180.217L341.996 180.217L341.996 154.165Z" fill="#FFDFAF"/>
<path d="M318.766 36.8031C318.766 16.6839 302.245 0.175781 282.111 0.175781C261.976 0.175781 245.455 16.6839 245.455 36.8031C245.455 56.9224 282.111 126.05 282.111 126.05C282.111 126.05 318.766 56.9224 318.766 36.8031Z" fill="#FFBFA8"/>
<path d="M300.178 27.7752C302.501 28.0331 305.083 28.0331 307.664 28.0331C303.534 17.7156 293.466 10.4933 281.85 10.4933C270.75 10.4933 261.199 16.9418 256.553 26.4855C259.909 28.0331 263.264 29.3228 266.878 29.5808L300.178 27.7752Z" fill="#FBF5F1"/>
<path d="M260.166 38.3507C262.231 38.0927 264.296 37.8348 266.619 37.8348C268.426 37.8348 270.491 38.6086 272.298 38.8666C275.654 39.3824 279.01 39.3824 282.366 38.6086C284.947 38.0927 287.27 37.061 289.852 37.061C292.691 37.061 295.272 37.8348 298.112 37.8348C300.693 37.5769 303.275 36.2872 305.856 36.803C307.405 37.061 308.696 37.8348 309.986 38.3507C309.986 34.7395 309.212 31.1284 307.921 28.0331C305.34 28.2911 302.758 28.0331 300.435 27.7752L267.135 29.3228C263.521 29.0649 260.166 27.5172 256.81 26.2275C255.003 29.8387 254.229 33.7078 254.229 37.8348C256.294 38.3507 258.617 38.6086 260.166 38.3507Z" fill="#F7DBD1"/>
<path d="M254.487 44.0254C256.552 43.5096 258.618 43.2516 260.424 42.7357C264.038 41.9619 267.91 41.9619 271.783 42.7357C274.622 43.2516 277.462 44.2834 280.559 44.0254C283.657 44.0254 286.755 42.7357 289.852 42.4778C294.241 41.9619 298.629 42.9937 303.017 44.0254C305.082 44.2834 306.889 44.7992 308.954 44.7992C309.471 42.7357 309.729 40.4143 309.729 38.0928C308.438 37.577 307.147 36.8031 305.599 36.5452C303.017 36.2873 300.436 37.319 297.854 37.577C295.015 37.8349 292.434 36.8031 289.594 36.8031C287.013 36.8031 284.431 37.8349 282.108 38.3508C278.752 39.1246 275.396 39.1246 272.041 38.6087C270.234 38.3508 268.427 37.8349 266.362 37.577C264.297 37.319 262.231 37.8349 259.908 38.0928C258.618 38.0928 256.294 37.8349 253.713 37.577L253.713 37.8349C253.971 40.4143 254.229 42.2199 254.487 44.0254Z" fill="#FFBFA8"/>
<path d="M289.853 42.7358C286.755 42.9937 283.658 44.2834 280.56 44.2834C277.721 44.2834 274.881 43.5096 271.783 42.9937C268.17 42.2199 264.298 42.2199 260.425 42.9937C258.618 43.2516 256.553 43.7675 254.488 44.2834C255.005 46.8628 255.779 49.1842 257.07 51.2477C257.586 51.2477 258.102 51.2477 258.36 51.5057C261.458 52.0216 264.556 53.0533 267.653 53.5692C271.267 54.0851 274.881 54.0851 278.495 53.5692C281.851 53.0533 284.949 52.0216 288.304 51.2477C293.983 49.958 299.92 49.9581 305.858 50.9898C306.116 50.9898 306.632 51.2477 306.89 51.2477C307.923 49.4422 308.439 47.3787 308.955 45.5731C306.89 45.5731 305.083 45.0572 303.018 44.7993C298.63 43.2516 294.241 42.2199 289.853 42.7358Z" fill="#FFDFAF"/>
<path d="M288.045 50.9897C284.689 51.7635 281.592 52.7953 278.236 53.3112C274.622 53.8271 271.008 53.8271 267.394 53.3112C264.297 52.7953 261.199 52.0215 258.101 51.2477C257.585 51.2477 257.327 50.9897 256.811 50.9897C261.457 60.0176 270.75 65.9502 281.592 65.9502C292.434 65.9502 301.985 59.7597 306.631 50.4739C306.373 50.4739 305.857 50.2159 305.599 50.2159C299.92 49.4421 293.982 49.7 288.045 50.9897Z" fill="#FEF0A5"/>
</svg>

<svg width="342" height="399" fill="none" xmlns="http://www.w3.org/2000/svg"><path d="M4.352 397.144c53.693 5.159 109.193-9.286 154.109-39.465 12.906-8.512 24.781-18.313 35.623-29.147 3.613-3.611-2.066-9.028-5.421-5.417-37.172 37.144-87.251 60.874-139.653 66.033-14.714 1.547-29.686 1.547-44.658.258-4.904-.516-4.904 7.222 0 7.738z" fill="#FFDFAF"/><path d="M173.175 329.822c6.97-.516 13.939-1.032 21.167-1.548l-3.872-3.869c.516 6.707.516 13.413-.258 20.12-.258 2.063 1.807 3.869 3.872 3.869 2.323 0 3.614-1.806 3.872-3.869.774-6.707.774-13.413.258-20.12-.258-2.063-1.549-4.127-3.872-3.869-6.97.516-13.939 1.032-21.167 1.548-2.065.258-3.872 1.548-3.872 3.869.258 1.806 1.807 3.869 3.872 3.869z" fill="#FFDFAF"/><path d="M341.996 177.896H92.119V302.48h249.877V177.896z" fill="#FEF0A5"/><path d="M217.574 198.531h-41.56V302.48h41.56V198.531z" fill="#FFDFAF"/><path d="M211.122 264.821h-28.653v33.274h28.653v-33.274zm0-37.659h-28.653v33.274h28.653v-33.274zm0-21.667h-28.653v16.766h28.653v-16.766zm121.322-7.996h-88.542V302.48h88.542V197.499zm-161.594 0h-58.856V302.48h58.856V197.499z" fill="#FFBFA8"/><path d="M341.996 154.165H92.119v26.052h249.877v-26.052z" fill="#FFDFAF"/><path d="M318.766 36.803c0-20.12-16.521-36.627-36.655-36.627-20.135 0-36.656 16.508-36.656 36.627 0 20.12 36.656 89.247 36.656 89.247s36.655-69.128 36.655-89.247z" fill="#FFBFA8"/><path d="M300.178 27.775c2.323.258 4.905.258 7.486.258-4.13-10.317-14.198-17.54-25.814-17.54-11.1 0-20.651 6.449-25.297 15.992 3.356 1.548 6.711 2.838 10.325 3.096l33.3-1.806z" fill="#FBF5F1"/><path d="M260.166 38.35c2.065-.257 4.13-.515 6.453-.515 1.807 0 3.872.774 5.679 1.032 3.356.515 6.712.515 10.068-.258 2.581-.516 4.904-1.548 7.486-1.548 2.839 0 5.42.774 8.26.774 2.581-.258 5.163-1.548 7.744-1.032 1.549.258 2.84 1.032 4.13 1.548 0-3.611-.774-7.223-2.065-10.318-2.581.258-5.163 0-7.486-.258l-33.3 1.548c-3.614-.258-6.969-1.806-10.325-3.096-1.807 3.612-2.581 7.48-2.581 11.608 2.065.516 4.388.774 5.937.516z" fill="#F7DBD1"/><path d="M254.487 44.025c2.065-.515 4.131-.773 5.937-1.29 3.614-.773 7.486-.773 11.359 0 2.839.517 5.679 1.548 8.776 1.29 3.098 0 6.196-1.29 9.293-1.547 4.389-.516 8.777.516 13.165 1.547 2.065.258 3.872.774 5.937.774.517-2.063.775-4.385.775-6.706-1.291-.516-2.582-1.29-4.13-1.548-2.582-.258-5.163.774-7.745 1.032-2.839.258-5.42-.774-8.26-.774-2.581 0-5.163 1.032-7.486 1.548-3.356.774-6.712.774-10.067.258-1.807-.258-3.614-.774-5.679-1.032-2.065-.258-4.131.258-6.454.516-1.29 0-3.614-.258-6.195-.516v.258c.258 2.58.516 4.385.774 6.19z" fill="#FFBFA8"/><path d="M289.853 42.736c-3.098.258-6.195 1.547-9.293 1.547-2.839 0-5.679-.773-8.777-1.29-3.613-.773-7.485-.773-11.358 0-1.807.259-3.872.774-5.937 1.29.517 2.58 1.291 4.901 2.582 6.965.516 0 1.032 0 1.29.258 3.098.516 6.196 1.547 9.293 2.063 3.614.516 7.228.516 10.842 0 3.356-.516 6.454-1.547 9.809-2.321 5.679-1.29 11.616-1.29 17.554-.258.258 0 .774.258 1.032.258 1.033-1.806 1.549-3.87 2.065-5.675-2.065 0-3.872-.516-5.937-.774-4.388-1.547-8.777-2.58-13.165-2.063z" fill="#FFDFAF"/><path d="M288.045 50.99c-3.356.773-6.453 1.805-9.809 2.321a38.169 38.169 0 01-10.842 0c-3.097-.516-6.195-1.29-9.293-2.063-.516 0-.774-.258-1.29-.258 4.646 9.028 13.939 14.96 24.781 14.96 10.842 0 20.393-6.19 25.039-15.476-.258 0-.774-.258-1.032-.258-5.679-.774-11.617-.516-17.554.774z" fill="#FEF0A5"/></svg>
